**kern	**kern	**dynam
*part1	*part1	*part1
*staff2	*staff1	*
*I"Piano	*	*
*clefF4	*clefG2	*
*k[]	*k[]	*
=1	=1	=1
4AA 4F#X	4c 4d 4a	<
4BB 4Fn	4d 4g	[ >
4C 4E	4c 4g	]
=	=	=
4F#X 4A	4c 4d	p
4F# 4A	4c 4d	.
4F# 4A	4c 4d	.
=	=	=
4F#X 4A	4c 4e-X	.
4F# 4A	4c 4e-	.
4F# 4A	4c 4e-	.
=	=	=
2.G	4c 4d	.
.	4c 4d	.
.	4c 4d	.
=	=	=
*^	*	*
4Fn 4B	2.GG	4d	.
4F 4B	.	4d	.
4F 4B	.	4d	.
=	=	=	=
4E 4B-X	2.C	2.c^	.
4E 4B-	.	.	.
4E 4B-	.	.	.
*v	*v	*	*
=	=	=
4C 4B-X	4c 4e 4g	.
!	!LO:TX:b:i:t=cresc.	!
4C 4B-	4c 4e 4g	.
4C 4B-	4c 4e 4g	.
=	=	=
*-	*-	*-
!!!system-decoration: {(s1,s2)}
